icons/folder-plus-outline.svg

<svg xmlns="http://www.w3.org/2000/svg" width="24" height="24" viewBox="0 0 24 24">
  <path d="M11,4 C11.2652165,4 11.5195704,4.10535684 11.7071068,4.29289322 L11.7071068,4.29289322 L13.415,6 L19,6 C20.5976809,6 21.9036609,7.24891996 21.9949073,8.82372721 L21.9949073,8.82372721 L22,9 L22,17 C22,18.6568542 20.6568542,20 19,20 L19,20 L5,20 C3.34314575,20 2,18.6568542 2,17 L2,17 L2,7 C2,5.34314575 3.34314575,4 5,4 L5,4 Z M10.585,6 L5,6 C4.44771525,6 4,6.44771525 4,7 L4,7 L4,17 C4,17.5522847 4.44771525,18 5,18 L5,18 L19,18 C19.5522847,18 20,17.5522847 20,17 L20,17 L20,9 C20,8.44771525 19.5522847,8 19,8 L19,8 L13,8 C12.7347835,8 12.4804296,7.89464316 12.2928932,7.70710678 L12.2928932,7.70710678 L10.585,6 Z M12,9 C12.5128358,9 12.9355072,9.38604019 12.9932723,9.88337887 L13,10 L12.999,12 L15,12 C15.5522847,12 16,12.4477153 16,13 C16,13.5128358 15.6139598,13.9355072 15.1166211,13.9932723 L15,14 L12.999,14 L13,16 C13,16.5522847 12.5522847,17 12,17 C11.4871642,17 11.0644928,16.6139598 11.0067277,16.1166211 L11,16 L10.999,14 L9,14 C8.44771525,14 8,13.5522847 8,13 C8,12.4871642 8.38604019,12.0644928 8.88337887,12.0067277 L9,12 L10.999,12 L11,10 C11,9.44771525 11.4477153,9 12,9 Z"/>
</svg>

<svg xmlns="http://www.w3.org/2000/svg" viewBox="0 0 24 24">
  <path d="M11 4a1 1 0 0 1 .7.3L13.42 6H19a3 3 0 0 1 3 2.82V17a3 3 0 0 1-3 3H5a3 3 0 0 1-3-3V7a3 3 0 0 1 3-3zm-.41 2H5a1 1 0 0 0-1 1v10a1 1 0 0 0 1 1h14a1 1 0 0 0 1-1V9a1 1 0 0 0-1-1h-6a1 1 0 0 1-.7-.3L10.58 6zM12 9a1 1 0 0 1 1 .88V12h2a1 1 0 0 1 .12 2H13v2a1 1 0 0 1-2 .12V14H9a1 1 0 0 1-.12-2H11v-2a1 1 0 0 1 1-1z"/>
</svg>
